src/assets/home/homesponsors/forbes.svg

<svg fill="none" height="76" viewBox="0 0 289 76" width="289" xmlns="http://www.w3.org/2000/svg" xmlns:xlink="http://www.w3.org/1999/xlink"><clipPath id="a"><path d="m0 0h289v76h-289z"/></clipPath><mask id="b" height="76" maskUnits="userSpaceOnUse" width="289" x="0" y="0"><path d="m289 0h-289v76h289z" fill="#fff"/></mask><g clip-path="url(#a)"><g fill="#000" mask="url(#b)"><path d="m164.339 24.1349c.962-.4149 1.632-.7434 2.319-1.0027 6.272-2.2648 12.475-2.7489 18.506.7261 4.141 2.3858 7.114 5.9299 8.695 10.3903 3.935 11.0646 3.368 21.8526-3.557 31.6206-4.502 6.3448-11.169 9.2493-18.798 9.8371-7.578.5878-15.035-.3976-22.527-2.2129v-1.4695c.069-16.8736.138-33.7298.172-50.6033 0-2.8353-.189-5.6706-.361-8.5059-.052-.8126-.326-1.6078-.584-2.4031-.584-1.88445-1.753-3.12922-3.78-3.42312-.43-.06916-.842-.22475-1.255-.27662-.996-.13831-1.203-.76069-1.22-1.67698 0-.93357.533-1.10646 1.237-1.22748 6.667-1.27934 13.334-2.5414 19.984-3.838032 1.031-.207461 1.392.051865 1.375 1.158322-.086 7.08827-.12 14.19381-.172 21.28211v1.6424zm15.653 23.4777c0-.6224 0-1.2621 0-1.8845-.103-4.6678-.842-9.2147-3.299-13.2429-2.818-4.6333-6.203-5.7052-11.117-4.4777-.928.242-1.22.6569-1.22 1.6251.103 12.7589.154 25.5177.223 38.2939 0 .8644.017 1.7461.172 2.5933.069.363.464.8817.79.9336 2.973.5359 5.774.121 7.905-2.213 1.202-1.3139 2.285-2.818 3.075-4.4085 2.681-5.394 3.523-11.2202 3.454-17.202z"/><path d="m.0868906 1.34863h58.6454094c.0687.72612.1718 1.45223.189 2.19564.1031 5.87807.189 11.73883.3265 17.61693.0172.8298-.2406 1.1583-1.0138 1.3831-2.6462.7779-2.6462.8125-3.6428-1.7807-1.1684-3.0601-2.5087-6.051-4.6222-8.5924-2.6462-3.19836-6.014-4.99636-10.2067-5.04823-3.7631-.05186-7.5433-.05186-11.3064-.12102-.7388 0-1.0481.20747-1.0653.98545-.1718 9.0591-.3437 18.1183-.5327 27.1774 0 .1556.0344.2939.0859.536 1.6152 0 3.2132.0173 4.8113 0 .8935 0 1.8042-.1383 2.6977-.1729 2.8352-.0692 4.8799-1.4695 6.0999-3.9418.7561-1.5386 1.2372-3.2156 1.7183-4.8753.2406-.8299.5671-1.2102 1.4434-1.1238.6873.0519 1.409 0 2.1822 0v24.93c-.9622 0-1.9245.0691-2.8695-.0346-.2578-.0346-.5671-.5532-.6873-.899-.5671-1.5905-.9795-3.2502-1.6668-4.7716-1.1684-2.5587-3.1273-4.0455-6.0484-4.1492-2.5431-.0692-5.069-.2767-7.6464-.4323-.0515.3977-.1203.6224-.1031.8472.2578 7.0537.4468 14.0901.842 21.1265.1031 1.7288.7388 3.4577 1.3746 5.0828.6358 1.6596 1.9417 2.7315 3.7631 3.06 1.3574.2421 2.6977.4841 4.038.7607 1.1169.242 1.2715.6915 1.1856 2.3858-.0516 1.0546-.6701 1.0546-1.4262 1.0546-11.7359 0-23.4719 0-35.20786 0-.6014 0-1.4089982.1902-1.323083-.8298.068731-.9163-.584221-2.1611.910693-2.5587.9107-.2421 1.83858-.4495 2.76646-.5878 2.818-.4322 4.62221-2.0919 5.22361-4.7716.60141-2.6279 1.09968-5.3595 1.13408-8.0392.1203-13.3985.0859-26.7971.0344-40.1956 0-1.8326-.30933-3.6997-.6358-5.515-.89352-4.80621-2.80083-6.50047-7.62923-7.01913-.27493-.03457-.54986-.06915-.82479-.06915-.721679-.01729-1.0309723-.36306-.979423-1.10646.051548-.77798 0-1.57325 0-2.48954z"/><path d="m76.688 75.7927c-6.5639.2593-12.2171-1.4696-16.9768-5.7225-3.0413-2.697-5.1205-6.051-6.392-9.9063-2.3713-7.192-2.5603-14.4704-.4296-21.7489 2.8867-9.8889 11.3064-16.6833 21.5302-17.6342 3.7975-.3457 7.5262-.1037 11.1861.9163 6.5124 1.8326 11.3236 5.8089 14.0557 11.9809 3.8834 8.7307 4.2614 17.7898.7214 26.6588-3.9003 9.7853-11.4264 14.8853-21.9595 15.4213-.6702.0346-1.3403 0-1.7355 0zm-9.0211-27.8344c-.1031 4.6679.1719 9.8025 1.6496 14.7989.7217 2.4204 1.6152 4.7716 3.2991 6.7252 2.6634 3.0946 6.5295 3.1983 9.3647.2766 1.495-1.5387 2.4744-3.4231 2.8696-5.4804.6701-3.5442 1.2543-7.1229 1.5121-10.7189.4124-5.9472.2405-11.8944-1.0138-17.7552-.7389-3.4231-1.8901-6.6733-4.4676-9.1975-2.9211-2.8526-7.0622-2.5586-9.3303.8472-1.0654 1.6078-1.8214 3.4922-2.3884 5.3421-1.409 4.7716-1.5121 9.6988-1.4778 15.1447z"/><path d="m246.456 46.212h-30.809c.241 2.3167.344 4.5123.705 6.6561.842 4.7716 2.904 8.8689 6.856 11.8598 1.924 1.4523 4.038 2.4031 6.426 2.7316 4.811.6915 9.382.1729 13.506-2.697 1.22-.8471 1.959-.6224 2.388.778.155.5186-.171 1.3831-.567 1.8326-2.199 2.5587-4.742 4.7543-7.887 6.0336-9.897 4.0801-19.382 3.596-27.922-3.3021-5.447-4.4085-8.179-10.4595-8.883-17.4094-.653-6.5178.051-12.8108 3.075-18.7407 4.743-9.3012 13.918-13.7616 23.799-13.2602 10.739.5532 16.633 7.5896 18.592 16.9772.567 2.7316.945 5.4977.687 8.5232zm-30.654-4.7025h15.121c-.189-2.3685-.275-4.4777-.533-6.5868-.326-2.697-.807-5.394-2.268-7.7626-1.667-2.7315-4.467-3.1637-6.89-1.0891-.481.3976-.928.8644-1.272 1.383-2.921 4.2357-3.694 9.1111-4.158 14.0555z"/><path d="m249.428 64.9877c0-2.161.086-4.3394-.034-6.5004-.069-1.1757.378-1.6079 1.426-1.8326 1.031-.2248 1.477.0691 1.924 1.0546 1.134 2.4549 2.251 4.9618 3.729 7.2093 2.749 4.2183 6.718 6.1374 11.805 5.394 2.783-.3977 5.275-2.6106 5.962-5.3767.808-3.233.052-5.9127-2.56-7.6243-2.028-1.3312-4.262-2.3339-6.444-3.3712-1.838-.8817-3.763-1.5733-5.636-2.3685-11.908-5.1001-11.461-19.657-3.505-26.192 3.797-3.1119 8.196-4.4259 12.956-4.6679 5.378-.2593 10.636.4495 15.757 2.2302.893.3112 1.271.7261 1.288 1.7461 0 3.9072.086 7.7971.258 11.7043.052 1.3312-.876 1.2448-1.632 1.556-.859.3458-1.203-.2075-1.495-.8644-.945-2.0746-1.787-4.2184-2.887-6.1893-1.632-2.939-4.089-4.9445-7.475-5.636-3.402-.7089-6.426.5705-7.835 3.5441-1.134 2.3858-1.512 6.3449 1.598 8.5751 2.337 1.6769 4.949 3.0082 7.509 4.3567 2.492 1.3139 5.155 2.3339 7.612 3.6997 4.966 2.7661 7.234 7.0191 7.234 12.828 0 7.2957-4.313 13.2948-10.791 15.8189-2.698 1.0546-5.447 1.6252-8.368 1.7289-6.048.2074-11.994-.3112-17.784-2.1265-2.268-.7088-2.286-.6915-2.32-2.9909-.034-1.8844 0-3.7862 0-5.6706h-.309z"/><path d="m133.685 71.3669v3.0947c-.361.0345-.636.0691-.894.0691-9.622 0-19.245 0-28.85-.0173-.447 0-1.289-.2074-1.306-.3976-.103-.8817 0-1.7807.069-2.6624 0-.0865.326-.1556.515-.2075.258-.0691.533-.1383.808-.1729 3.196-.363 5.035-1.5559 5.309-6.0163.619-10.3558.705-20.7116.052-31.0847-.052-.778-.223-1.5559-.412-2.3166-.464-1.9018-1.616-3.1119-3.592-3.4231-.549-.0865-1.082-.2248-1.615-.2939-.739-.1038-1.323-.2767-1.306-1.2794 0-.9681.241-1.5041 1.289-1.7115 6.736-1.314 13.454-2.697 20.19-4.0455.378-.0692.773-.0692 1.168-.1038v10.4941c.413-.7088.808-1.3658 1.203-2.0227 2.114-3.5442 4.88-6.3622 8.798-7.8836 3.007-1.1583 6.065-1.1237 9.107-.1037 1.529.5187 1.667.8471 1.117 2.3339-1.461 3.9418-2.956 7.8836-4.433 11.8253-.138.3631-.327.6916-.568 1.1757-.996-.415-1.924-.8126-2.835-1.2102-3.093-1.3658-6.254-1.7635-9.502-.6224-.739.2593-1.495.5705-2.079 1.0546-.447.3803-.876 1.0719-.911 1.6597-.378 9.4222-.464 18.8271.447 28.232.086.8817.361 1.7807.687 2.6106.533 1.3485 1.564 2.1437 2.99 2.3685 1.478.2247 2.956.3976 4.571.6224z"/></g></g></svg>

<svg width="289" height="76" viewBox="0 0 289 76" fill="none" xmlns="http://www.w3.org/2000/svg">
<g clip-path="url(#clip0_355_20)">
<mask id="mask0_355_20" style="mask-type:luminance" maskUnits="userSpaceOnUse" x="0" y="0" width="289" height="76">
<path d="M289 0H0V76H289V0Z" fill="white"/>
</mask>
<g mask="url(#mask0_355_20)">
<path d="M164.339 24.1349C165.301 23.72 165.971 23.3915 166.658 23.1322C172.93 20.8674 179.133 20.3833 185.164 23.8583C189.305 26.2441 192.278 29.7882 193.859 34.2486C197.794 45.3132 197.227 56.1012 190.302 65.8692C185.8 72.214 179.133 75.1185 171.504 75.7063C163.926 76.2941 156.469 75.3087 148.977 73.4934V72.0239C149.046 55.1503 149.115 38.2941 149.149 21.4206C149.149 18.5853 148.96 15.75 148.788 12.9147C148.736 12.1021 148.462 11.3069 148.204 10.5116C147.62 8.62715 146.451 7.38238 144.424 7.08848C143.994 7.01932 143.582 6.86373 143.169 6.81186C142.173 6.67355 141.966 6.05117 141.949 5.13488C141.949 4.20131 142.482 4.02842 143.186 3.9074C149.853 2.62806 156.52 1.366 163.17 0.069368C164.201 -0.138093 164.562 0.121233 164.545 1.22769C164.459 8.31596 164.425 15.4215 164.373 22.5098C164.373 22.9593 164.373 23.4261 164.373 24.1522L164.339 24.1349ZM179.992 47.6126C179.992 46.9902 179.992 46.3505 179.992 45.7281C179.889 41.0603 179.15 36.5134 176.693 32.4852C173.875 27.8519 170.49 26.78 165.576 28.0075C164.648 28.2495 164.356 28.6644 164.356 29.6326C164.459 42.3915 164.51 55.1503 164.579 67.9265C164.579 68.7909 164.596 69.6726 164.751 70.5198C164.82 70.8828 165.215 71.4015 165.541 71.4534C168.514 71.9893 171.315 71.5744 173.446 69.2404C174.648 67.9265 175.731 66.4224 176.521 64.8319C179.202 59.4379 180.044 53.6117 179.975 47.6299L179.992 47.6126Z" fill="black"/>
<path d="M0.0868906 1.34863H58.7323C58.801 2.07475 58.9041 2.80086 58.9213 3.54427C59.0244 9.42234 59.1103 15.2831 59.2478 21.1612C59.265 21.991 59.0072 22.3195 58.234 22.5443C55.5878 23.3222 55.5878 23.3568 54.5912 20.7636C53.4228 17.7035 52.0825 14.7126 49.969 12.1712C47.3228 8.97284 43.955 7.17484 39.7623 7.12297C35.9992 7.07111 32.219 7.07111 28.4559 7.00195C27.7171 7.00195 27.4078 7.20942 27.3906 7.9874C27.2188 17.0465 27.0469 26.1057 26.8579 35.1648C26.8579 35.3204 26.8923 35.4587 26.9438 35.7008C28.559 35.7008 30.157 35.7181 31.7551 35.7008C32.6486 35.7008 33.5593 35.5625 34.4528 35.5279C37.288 35.4587 39.3327 34.0584 40.5527 31.5861C41.3088 30.0475 41.7899 28.3705 42.271 26.7108C42.5116 25.8809 42.8381 25.5006 43.7144 25.587C44.4017 25.6389 45.1234 25.587 45.8966 25.587V50.517C44.9344 50.517 43.9721 50.5861 43.0271 50.4824C42.7693 50.4478 42.46 49.9292 42.3398 49.5834C41.7727 47.9929 41.3603 46.3332 40.673 44.8118C39.5046 42.2531 37.5457 40.7663 34.6246 40.6626C32.0815 40.5934 29.5556 40.3859 26.9782 40.2303C26.9267 40.628 26.8579 40.8527 26.8751 41.0775C27.1329 48.1312 27.3219 55.1676 27.7171 62.204C27.8202 63.9328 28.4559 65.6617 29.0917 67.2868C29.7275 68.9464 31.0334 70.0183 32.8548 70.3468C34.2122 70.5889 35.5525 70.8309 36.8928 71.1075C38.0097 71.3495 38.1643 71.799 38.0784 73.4933C38.0268 74.5479 37.4083 74.5479 36.6522 74.5479C24.9163 74.5479 13.1803 74.5479 1.44434 74.5479C0.84294 74.5479 0.0353418 74.7381 0.121257 73.7181C0.189988 72.8018 -0.462964 71.557 1.03195 71.1594C1.94265 70.9173 2.87053 70.7099 3.79841 70.5716C6.61641 70.1394 8.42062 68.4797 9.02202 65.8C9.62343 63.1721 10.1217 60.4405 10.1561 57.7608C10.2764 44.3623 10.242 30.9637 10.1905 17.5652C10.1905 15.7326 9.88117 13.8655 9.5547 12.0502C8.66118 7.24399 6.75387 5.54973 1.92547 5.03107C1.65054 4.9965 1.37561 4.96192 1.10068 4.96192C0.379001 4.94463 0.0697077 4.59886 0.121257 3.85546C0.172805 3.07748 0.121257 2.28221 0.121257 1.36592L0.0868906 1.34863Z" fill="black"/>
<path d="M76.688 75.7927C70.1241 76.052 64.4709 74.3231 59.7112 70.0702C56.6699 67.3732 54.5907 64.0192 53.3192 60.1639C50.9479 52.9719 50.7589 45.6935 52.8896 38.415C55.7763 28.5261 64.196 21.7317 74.4198 20.7808C78.2173 20.4351 81.946 20.6771 85.6059 21.6971C92.1183 23.5297 96.9295 27.506 99.6616 33.678C103.545 42.4087 103.923 51.4678 100.383 60.3368C96.4827 70.1221 88.9566 75.2221 78.4235 75.7581C77.7533 75.7927 77.0832 75.7581 76.688 75.7581V75.7927ZM67.6669 47.9583C67.5638 52.6262 67.8388 57.7608 69.3165 62.7572C70.0382 65.1776 70.9317 67.5288 72.6156 69.4824C75.279 72.577 79.1451 72.6807 81.9803 69.759C83.4753 68.2203 84.4547 66.3359 84.8499 64.2786C85.52 60.7344 86.1042 57.1557 86.362 53.5597C86.7744 47.6125 86.6025 41.6653 85.3482 35.8045C84.6093 32.3814 83.4581 29.1312 80.8806 26.607C77.9595 23.7544 73.8184 24.0484 71.5503 27.4542C70.4849 29.062 69.7289 30.9464 69.1619 32.7963C67.7529 37.5679 67.6498 42.4951 67.6841 47.941L67.6669 47.9583Z" fill="black"/>
<path d="M246.456 46.212H215.647C215.888 48.5287 215.991 50.7243 216.352 52.8681C217.194 57.6397 219.256 61.737 223.208 64.7279C225.132 66.1802 227.246 67.131 229.634 67.4595C234.445 68.151 239.016 67.6324 243.14 64.7625C244.36 63.9154 245.099 64.1401 245.528 65.5405C245.683 66.0591 245.357 66.9236 244.961 67.3731C242.762 69.9318 240.219 72.1274 237.074 73.4067C227.177 77.4868 217.692 77.0027 209.152 70.1046C203.705 65.6961 200.973 59.6451 200.269 52.6952C199.616 46.1774 200.32 39.8844 203.344 33.9545C208.087 24.6533 217.262 20.1929 227.143 20.6943C237.882 21.2475 243.776 28.2839 245.735 37.6715C246.302 40.4031 246.68 43.1692 246.422 46.1947L246.456 46.212ZM215.802 41.5095H230.923C230.734 39.141 230.648 37.0318 230.39 34.9227C230.064 32.2257 229.583 29.5287 228.122 27.1601C226.455 24.4286 223.655 23.9964 221.232 26.071C220.751 26.4686 220.304 26.9354 219.96 27.454C217.039 31.6897 216.266 36.5651 215.802 41.5095Z" fill="black"/>
<path d="M249.428 64.9877C249.428 62.8267 249.514 60.6483 249.394 58.4873C249.325 57.3116 249.772 56.8794 250.82 56.6547C251.851 56.4299 252.297 56.7238 252.744 57.7093C253.878 60.1642 254.995 62.6711 256.473 64.9186C259.222 69.1369 263.191 71.056 268.278 70.3126C271.061 69.9149 273.553 67.702 274.24 64.9359C275.048 61.7029 274.292 59.0232 271.68 57.3116C269.652 55.9804 267.418 54.9777 265.236 53.9404C263.398 53.0587 261.473 52.3671 259.6 51.5719C247.692 46.4718 248.139 31.9149 256.095 25.3799C259.892 22.268 264.291 20.954 269.051 20.712C274.429 20.4527 279.687 21.1615 284.808 22.9422C285.701 23.2534 286.079 23.6683 286.096 24.6883C286.096 28.5955 286.182 32.4854 286.354 36.3926C286.406 37.7238 285.478 37.6374 284.722 37.9486C283.863 38.2944 283.519 37.7411 283.227 37.0842C282.282 35.0096 281.44 32.8658 280.34 30.8949C278.708 27.9559 276.251 25.9504 272.865 25.2589C269.463 24.55 266.439 25.8294 265.03 28.803C263.896 31.1888 263.518 35.1479 266.628 37.3781C268.965 39.055 271.577 40.3863 274.137 41.7348C276.629 43.0487 279.292 44.0687 281.749 45.4345C286.715 48.2006 288.983 52.4536 288.983 58.2625C288.983 65.5582 284.67 71.5573 278.192 74.0814C275.494 75.136 272.745 75.7066 269.824 75.8103C263.776 76.0177 257.83 75.4991 252.04 73.6838C249.772 72.975 249.754 72.9923 249.72 70.6929C249.686 68.8085 249.72 66.9067 249.72 65.0223H249.411L249.428 64.9877Z" fill="black"/>
<path d="M133.685 71.3669V74.4616C133.324 74.4961 133.049 74.5307 132.791 74.5307C123.169 74.5307 113.546 74.5307 103.941 74.5134C103.494 74.5134 102.652 74.306 102.635 74.1158C102.532 73.2341 102.635 72.3351 102.704 71.4534C102.704 71.3669 103.03 71.2978 103.219 71.2459C103.477 71.1768 103.752 71.1076 104.027 71.073C107.223 70.71 109.062 69.5171 109.336 65.0567C109.955 54.7009 110.041 44.3451 109.388 33.972C109.336 33.194 109.165 32.4161 108.976 31.6554C108.512 29.7536 107.36 28.5435 105.384 28.2323C104.835 28.1458 104.302 28.0075 103.769 27.9384C103.03 27.8346 102.446 27.6617 102.463 26.659C102.463 25.6909 102.704 25.1549 103.752 24.9475C110.488 23.6335 117.206 22.2505 123.942 20.902C124.32 20.8328 124.715 20.8328 125.11 20.7982V31.2923C125.523 30.5835 125.918 29.9265 126.313 29.2696C128.427 25.7254 131.193 22.9074 135.111 21.386C138.118 20.2277 141.176 20.2623 144.218 21.2823C145.747 21.801 145.885 22.1294 145.335 23.6162C143.874 27.558 142.379 31.4998 140.902 35.4415C140.764 35.8046 140.575 36.1331 140.334 36.6172C139.338 36.2022 138.41 35.8046 137.499 35.407C134.406 34.0412 131.245 33.6435 127.997 34.7846C127.258 35.0439 126.502 35.3551 125.918 35.8392C125.471 36.2195 125.042 36.9111 125.007 37.4989C124.629 46.9211 124.543 56.326 125.454 65.7309C125.54 66.6126 125.815 67.5116 126.141 68.3415C126.674 69.69 127.705 70.4852 129.131 70.71C130.609 70.9347 132.087 71.1076 133.702 71.3324L133.685 71.3669Z" fill="black"/>
</g>
</g>
<defs>
<clipPath id="clip0_355_20">
<rect width="289" height="76" fill="white"/>
</clipPath>
</defs>
</svg>
